src/DGGeoclicker/skin/light/img/DGSchedule__lunchIcon_light.svg

<svg xmlns="http://www.w3.org/2000/svg" width="12" height="11"><path fill="#666" d="M4 7h4c.58 0 1.461-.916 1.826-2.023v.023c1.221 0 2.174-1.547 2.174-2.969 0-.578-.469-1.031-.984-1.031h-1.016c0-.812-.219-1-1-1h-6c-.703 0-1 .188-1 1v3c0 1.49 1.137 3 2 3zm6-5h.5c.375 0 .5.219.5.5 0 1.125-.438 1.5-1 1.5v-2zm-10 7c0 .448 1.791 1 3 1 0 .405.646 1 1 1h4c.354 0 1-.595 1-1 1.208 0 3-.552 3-1v-1h-12v1z"/></svg>

<svg xmlns="http://www.w3.org/2000/svg" width="12" height="11">
    <path d="M 4,7 H 8 C 8.58,7 9.461,6.084 9.826,4.977 V 5 C 11.047,5 12,3.453 12,2.031 12,1.453 11.531,1 11.016,1 H 10 C 10,0.188 9.781,0 9,0 H 3 C 2.297,0 2,0.188 2,1 v 3 c 0,1.49 1.137,3 2,3 z m 6,-5 h 0.5 C 10.875,2 11,2.219 11,2.5 11,3.625 10.562,4 10,4 V 2 z M 0,9 c 0,0.448 1.791,1 3,1 0,0.405 0.646,1 1,1 h 4 c 0.354,0 1,-0.595 1,-1 1.208,0 3,-0.552 3,-1 V 8 H 0 v 1 z" fill="#666"/>
</svg>
